X:1
T:Syper oss fulla de gör vi så sällan
T:efter Olga Svensson, f. 1899
R:Schottis
O:Borrby Skåne
S:Musik i Österlen, häfte 7
M:C
L:1/8
K:G
dc |: B2 Bd G2 GF | E2 cc c2 c2 | DD FA DD FA | G2 GB d2 dc |
 B2 Bd G2 GF | E2 cc c2 c2 | DD FA DD FA |1 G2 G2 G2 dc  :|2 G2 G2 G3  e |
|: dB Ge dB Ge | d2 cA F4 | A2 B2 c2 d2 | ed Be d2 Be |
dB Ge dB Ge | d2 cA F4 | A2 B2 cA FA |1 G2 G2 G3 e :|2 G2 G2 G2|

